!!!!SEGMENT: pl-wtm--r-2137--001_wysocki-kasper-napoleon--anglaise-par-wysocki.krn
!!!cenid: 18xx:4365
!!!COM: Wysocki, Kasper Napoleon
!!!COM-rismID: pe41024789
!!!CDT: 1810/12/06-1850/09/21
!!!CNT: Polish
!!!OTL: Anglaise par Wysocki
!!!PDT:
!!!AGN: Secular; Anglaise
!!!SMS-siglum: PL-Wtm
!!!SMS-shelfmark: R 2137
!!!SMS-shelfwork: 001 W
!!!SMS-variant:
!!!SMS-altvar:
!!!NIFC-rismSourceID: 1001139713
!!!NIFC-rismChildID: 1001139736
!!!NIFC-islandoraID: pl-wtm:29938
!!!URL-pdf-islandora: https://repozytorium.nifc.pl/islandora/object/pl-wtm:29938/datastream/PDF/view
!!!URL-scan: https://polish.musicsources.pl/pl/lokalizacje/galeria/rekopisy/6567/2 @EN{Scan on Polish Music Sources Website} @PL{Skany w portalu Dziedzictwo Muzyki Polskiej w otwartym dostępie}
!!!ONB-nifc: UWAGA: skan 2.
!!!AIN: 2 piano
!!!key: E
!!!OMD: Anglaise par Wysocki.
**kern	**kern	**dynam
*part2	*part1	*part1
*staff2	*staff1	*
*I"fortepian	*I"fortepian	*
*Ipiano	*Ipiano	*
*ICklav	*ICklav	*
*clefF4	*clefG2	*
*k[f#c#g#d#]	*k[f#c#g#d#]	*
*E:	*E:	*
*M2/4	*M2/4	*
=1	=1	=1
*	*Xbrackettup	*
!	!LO:TUP:a:t=klamra łukowa	!
8E 8EE/	24ee 24b 24g# 24e/	.
.	24aa#X\LL	.
.	24bb\	.
(8E\L	24ccc#\	.
.	24bb\	.
.	24gg#\JJ	.
!	!LO:TUP:a:t=klamra łukowa	!
8B 8G# 8E\	24ee\	.
*	*8va	*
.	24aaa#X\LL	.
.	24bbb\	.
8E\J)	24cccc#\	.
.	24bbb\	.
.	24ggg#\JJ	.
=2	=2	=2
8E 8EE/	(32eee\LLL	.
.	32fff#\	.
.	32eee\	.
.	32ddd#\J	.
(8E\L	16eee\	.
.	16fff#\JJ	.
8B 8G# 8E\	16ggg#\LL	.
.	16ddd#\	.
8E\J)	16eee\	.
.	16ccc#\JJ)	.
=3	=3	=3
8BB 8BBB/	8bb\	.
!	!LO:TUP:a:t=klamra łukowa	!
(8AL 8F# 8D#\	24ccc#\LL	.
.	24aaa\	.
.	24ccc#\JJ	.
!	!LO:TUP:a:t=klamra łukowa	!
8BB\	24bb\LL	.
.	24fff#\	.
.	24bb\JJ	.
!	!LO:TUP:a:t=klamra łukowa	!
8AJ 8F# 8D#\)	24aa\LL	.
.	24ddd#\	.
.	24aa\JJ	.
*	*X8va	*
!!LO:LB:g=original
=4	=4	=4
!	!LO:TX:a:t=loco	!
!	!LO:TUP:a:t=klamra łukowa	!
8BB 8BBB/	24ff#\LL	.
.	24cccn\	.
.	24ff#\JJ	.
!	!LO:TUP:a:t=klamra łukowa	!
(8AL 8F# 8D#\	24b\LL	.
.	24bb\	.
.	24b\JJ	.
!	!LO:TUP:a:t=klamra łukowa	!
8BB\	24ccn\LL	.
.	24aa\	.
.	24cc#X\JJ	.
!	!LO:TUP:a:t=klamra łukowa	!
8AJ 8F# 8D#\)	24ddn\LL	.
.	24aa\	.
.	24dd#X\JJ	.
=5	=5	=5
!	!LO:TUP:a:t=klamra łukowa	!
8E 8EE/	24gg# 24ee\	.
.	24aa#X\LL	.
.	24bb\	.
(8E\L	24ccc#\	.
.	24bb\	.
.	24gg#\JJ	.
!	!LO:TUP:a:t=klamra łukowa	!
8B 8G# 8E\	24ee\	.
*	*8va	*
.	24aaa#X\LL	.
.	24bbb\	.
8E\J)	24cccc#\	.
.	24bbb\	.
.	24ggg#\JJ	.
=6	=6	=6
8E 8EE/	32eee\LLL	.
.	32fff#\	.
.	32eee\	.
.	32ddd#\J	.
(8E\L	16eee\	.
.	16fff#\JJ	.
8B 8G# 8E\	16ggg#\LL	.
.	16ddd#\	.
8E\J)	16eee\	.
.	16ccc#\JJ	.
!!LO:LB:g=original
=7	=7	=7
8BB 8BBB/	8bb\	.
!	!LO:TUP:a:t=klamra łukowa	!
(8AL 8F# 8D#\	24fff#\LL	.
.	24ccccn\	.
.	24fff#\JJ	.
!	!LO:TUP:a:t=klamra łukowa	!
8BB\	24eee\LL	.
.	24cccc\	.
.	24eee\JJ	.
!	!LO:TUP:a:t=klamra łukowa	!
8AJ 8F# 8D#\)	24ddd#\LL	.
.	24cccc\	.
.	24ddd#\JJ	.
=8	=8	=8
!	!LO:TUP:a:t=klamra łukowa	!
8BB 8BBB/	24bb\LL	.
.	24bbb\	.
.	24bb\JJ	.
!	!LO:TUP:a:t=klamra łukowa	!
(8AL 8F# 8D#\	24cccn\LL	.
.	24aaa\	.
.	24ccc\JJ	.
!	!LO:TUP:a:t=klamra łukowa	!
8BB\	24aa\LL	.
.	24fff#\	.
.	24aa\JJ	.
!	!LO:TUP:a:t=klamra łukowa	!
8AJ 8F# 8D#\)	24ff#\LL	.
.	24ddd#\	.
.	24ff#\JJ	.
=9||	=9||	=9||
!!!key: C
*k[]	*k[]	*
8C 8CC/	8eee 8ee/	sf
*	*Xtuplet	*
!	!	!LO:DY:t=p.
(8e\L	24ee/LL	p
.	24ff/	.
.	24ff#X/JJ	.
!	!LO:TX:b:t=dolce	!
8G\	24gg/LL	.
.	24aa/	.
.	24bb/JJ	.
8e\J)	24ccc\LL	.
.	24ddd\	.
.	24eee\JJ	.
!!LO:LB:g=original
=10	=10	=10
*	*tuplet	*
!	!LO:TUP:a:t=klamra łukowa	!
8GG/	24ddd\LL	.
.	24fff\	.
.	24ddd\JJ	.
!	!LO:TUP:a:t=klamra łukowa	!
(8fL 8d 8B\	24ccc\LL	.
.	24fff\	.
.	24ccc\JJ	.
!	!LO:TUP:a:t=klamra łukowa	!
8G\	24bb\LL	.
.	24fff\	.
.	24bb\JJ	.
!	!LO:TUP:a:t=klamra łukowa	!
8fJ 8d 8B\)	24aa\LL	.
.	24fff\	.
.	24aa\JJ	.
=11	=11	=11
!	!LO:TUP:b:t=klamra łukowa	!
8GG/	24gg/LL	.
.	24aa/	.
.	24bb/JJ	.
!	!LO:TUP:a:t=klamra łukowa	!
(8fL 8d 8B\	24bb\LL	.
.	24ccc\	.
.	24ccc#X\JJ	.
!	!LO:TUP:a:t=klamra łukowa	!
8G\	24ddd\LL	.
.	24eee\	.
.	24fff\JJ	.
!	!LO:TUP:a:t=klamra łukowa	!
8fJ 8d 8B\)	24aaa\LL	.
.	24ggg\	.
.	24fff\JJ	.
=12	=12	=12
!	!LO:TUP:a:t=klamra łukowa	!
8e 8c\	24eee\LL	.
.	24cccc\	.
.	24bbb\	.
8r	24aaa\	.
.	24ggg\	.
.	24fff#X\JJ	.
!	!LO:TUP:a:t=klamra łukowa	!
4f 4d 4B 4G\	24aaa\LL	.
.	24ggg\	.
.	24fffn\	.
.	24ddd\	.
.	24bb\	.
.	24gg\JJ	.
!!LO:LB:g=original
=13	=13	=13
8c 8C\	8ee/	.
!	!LO:TUP:a:t=klamra łukowa	!
(8eL 8c\	24eee\LL	.
.	24fff\	.
.	24fff#X\JJ	.
!	!LO:TUP:a:t=klamra łukowa	!
8G\	24ggg\LL	.
.	24aaa\	.
.	24bbb\JJ	.
!	!LO:TUP:a:t=klamra łukowa	!
8eJ 8c\)	24cccc\LL	.
.	24dddd\	.
.	24eeee\JJ	.
=14	=14	=14
!	!LO:TUP:a:t=klamra łukowa	!
8GG/	24dddd\LL	.
.	24ffff\	.
.	24dddd\JJ	.
!	!LO:TUP:a:t=klamra łukowa	!
(8fL 8d 8B\	24cccc\LL	.
.	24ffff\	.
.	24dddd\JJ	.
!	!LO:TUP:a:t=klamra łukowa	!
8G\	24bbb\LL	.
.	24ffff\	.
.	24bbb\JJ	.
!	!LO:TUP:a:t=klamra łukowa	!
8fJ 8d 8B\)	24aaa\LL	.
.	24ffff\	.
.	24aaa\JJ	.
=15	=15	=15
!	!LO:TUP:a:t=klamra łukowa	!
8GG/	24ggg\LL	.
.	24dddd\	.
.	24ggg\JJ	.
!	!LO:TUP:a:t=klamra łukowa	!
(8fL 8d 8B\	24fff#X\LL	.
.	24dddd\	.
.	24fff#\JJ	.
!	!LO:TUP:a:t=klamra łukowa	!
8G\	24fffn\LL	.
.	24dddd\	.
.	24fff\JJ	.
!	!LO:TUP:a:t=klamra łukowa	!
8fJ 8d 8B\)	24ddd\LL	.
.	24bbb\	.
.	24ddd\JJ	.
!!LO:LB:g=original
=16	=16	=16
!	!LO:TUP:a:t=klamra łukowa	!
8e 8c\	28eee\LL	.
.	28cccc\	.
.	28ggg\	.
.	28eee\	.
8r	.	.
.	28ccc\	.
.	28gg\	.
.	28ee\JJ	.
8c 8C\	8cc/	.
!	!LO:TX:b:t=fine.	!
8r	8r	.
*	*X8va	*
==	==	==
*-	*-	*-
!!!system-decoration: {(*)}
!!!ENC: Berenika Jozajtis
!!!END: 2023-07-13
!!!ENC: Marta Lawrence
!!!END: 2023-07-21
!!!YEC: Copyright 2022 Narodowy Instytut Fryderyka Chopina (https://polishscores.org)
!!!YEM: License CC-BY-4.0 (https://creativecommons.org/licenses/by/4.0)
